!!!COM: Webern, Anton (Friedrich Wilhelm von)
!!!OTL: Sechs Bagatellen (Six Bagatellen) for String Quartet, op. 9
!!!OMV: No. 6: Fließend (Fluently)
!!!example: 417
!!!work: Web-12
**kern	**dynam	**kern	**dynam	**kern	**dynam	**kern	**dynam
*part4	*part4	*part3	*part3	*part2	*part2	*part1	*part1
*staff4	*	*staff3	*	*staff2	*	*staff1	*
*I"Violoncello	*	*I"Viola	*	*I"Violin II	*	*I"Violin I	*
*I'Vc.	*	*I'Vla.	*	*I'Vln. II	*	*I'Vln. I	*
*clefF4	*	*clefC3	*	*clefG2	*	*clefG2	*
*k[]	*	*k[]	*	*k[]	*	*k[]	*
*C:	*	*C:	*	*C:	*	*C:	*
*M3/4	*	*M3/4	*	*M3/4	*	*M3/4	*
*MM121	*	*MM121	*	*MM121	*	*MM121	*
=1	=	=	=	=	=	=	=
4r	.	8r	.	8r	.	4r	ppp
.	.	4En 4An 4d	<	4aan'	<	.	.
8r	.	.	.	.	.	4bb-XT	<
4Cn~ 4Fn	<	8r	[	8r	[	.	.
.	.	8ee-X`L	>	8ccc#X`L	>	8r	[
8r	[	8ffn`J	]	8bbn`J	]]	8f#X` 8bn 8ee	pp
=2	=2	=2	=2	=2	=2	=2	=2
4A-X 4d-X	pp	4r	.	4r	]	8r	.
.	.	.	.	.	.	8Gn~	.
*clefC3	*	*	*	*	*	*	*
8r	[	8ee-X	<	8an	<	8r	pp
8fn~ 8bn	p	8r	[	8r	[	8c#X	<
4r	]]	4ent	]]	4r	.	4r	[[
=3	=3	=3	=3	=3	=3	=3	=3
12r	]	12r	]	12r	.	12r	[
12dn~ 12gn	<	12b-X~	<	12cc~ 12ff	<	12ccn~ 12ff	<
12r	.	12r	.	12r	.	12r	.
12r	[	8r	[	4ff#Xt	[	8r	[
12ddn~ 12ggn	<	.	.	.	.	.	.
.	.	8cn`	p	.	.	8aan'	pp
12r	.	.	.	.	.	.	.
*clefF4	*	*	*	*	*	*	*
8r	[	4r	.	4r	[	4G#X	[[
(8qCC#X/ 8qAAn	<	.	.	.	.	.	.
[8dn)	.	.	.	.	.	.	.
*	*	*clefG2	*	*	*	*	*
=4	=4	=4	=4	=4	=4	=4	=4
!!linebreak:original
!	!	!	!	!	!	!LO:TX:a:i:t=rit.	!
12d]	[	8r	.	8ee 8aa	<	8r	[
12r	.	.	.	.	.	.	.
.	.	(8bn	<	8r	[	8eeen	pp
12FFn~ 12BB-X	p	.	.	.	.	.	.
8.r	.	8bb-XL	[	16r	.	12r	.
.	.	.	.	8an~	ppp	.	.
.	.	.	.	.	.	12gg#X	<
.	.	8eenJ	>	.	.	.	.
.	.	.	.	.	.	12r	[
16FF#X'	pp	.	.	16r	.	.	.
4r	.	8gn)	.	12r	.	8r	.
.	.	.	.	6cn	[[	.	.
.	.	8r	]	.	.	[8ffn [8bb-X	[[
=5	=5	=5	=5	=5	=5	=5	=5
4r	.	8r	.	4cc#X 4ff#X	[	12ffn] 12bb-]	[
.	.	.	.	.	.	12r	.
*	*	*clefC3	*	*	*	*	*
.	.	8gn	.	.	.	.	.
.	.	.	.	.	.	[12aan [12dddn	<
*clefC4	*	*	*	*	*	*	*
2a-Xt	[[	8r	.	8r	[	8aa 8ddd	.
.	.	4.e-X 4.a	[[	4.ggn 4.fff#X	[[	8r	[
.	.	.	.	.	.	16r	.
.	.	.	.	.	.	16BnLL	.
.	.	.	.	.	.	16een	.
.	.	.	.	.	.	[16cccnJJ	.
=6	=6	=6	=6	=6	=6	=6	=6
4r;	[	4r;	[	4r;	[	4.ccc;]	>
8r	.	8C#X 8F 8B	ppp	12r	.	.	.
.	.	.	.	12dn~L	ppp	.	.
*clefF4	*	*	*	*	*	*	*
!	!	!	!	!	!	!LO:TX:a:i:t=rit.	!
4EEn 4AA	>	8r	.	.	.	8r	]
.	.	.	.	12B-X~J	<	.	.
.	.	4r	.	8an~	[	16r	.
.	.	.	.	.	.	[8.f#X	[[
8Fn	]	.	.	8r	[	.	.
=7	=7	=7	=7	=7	=7	=7	=7
!!pagebreak:original
8r	.	8r	.	4r	.	4f#]	[
4CCn~ 4E-X	<	4Bn~	<	.	.	.	.
.	.	.	.	12r	.	4r;	[
.	.	.	.	[6ggn	<	.	.
8r;	[	8r;	[	.	.	.	.
!	!	!	!	!	!	!LO:TX:a:B:t=Rit.	!
4r	.	8r	.	4gg	[[	4r	.
.	.	8A-X~	[[	.	.	.	.
*clefC4	*	*	*	*	*	*	*
=8	=8	=8	=8	=8	=8	=8	=8
2.ddnT	pp	4r	[	4r	[	4r	.
*	*	*clefG2	*	*	*	*	*
.	.	4en 4an	ppp	4en 4an	ppp	8r	.
.	.	.	.	.	.	[4.cc#X	[[
.	.	4r	[	4r	[	.	.
=9	=9	=9	=9	=9	=9	=9	=9
8.r	.	4r	.	4ccn	>	8cc#]	[
.	.	.	.	.	.	8r	[
(16a#X	ppp	.	.	.	.	.	.
4bn)	>	4r	.	6cc	.	4r	.
.	.	.	.	12r	]	.	.
*	*	*clefC3	*	*	*	*	*
4r	]	4gnT	]]	4r	.	[8g#X~L	<
.	.	.	.	.	.	8g#~J]	[[
==	==	==	==	==	==	==	==
*-	*-	*-	*-	*-	*-	*-	*-
!!!CDT: 1883/12/03-1945/09/15
!!!CBL: Vienna, Austria
!!!CDL: Mittersill, Austria
!!!CNT: Austrian
!!!AGN: Instrumental; Chamber
!!!MCN:
!!!MDT: 1924/07/20
!!!MGN: Quatuor Amar
!!!MLC: Donaueschingen, Germany
!!!MPD: 1924
!!!MPN: Amar, Licco; Casper, Walter; Frank, Maurits; Hindemith, Paul
!!!ODT: 1913
!!!PDT: 1924
!!!excerpt-start-measure: 1
!!!excerpt-end-measure: 9
!!!excerpt-start-time: 0:00
!!!excerpt-end-time: 0:28
!!!EEV: 2020/01/17
!!!system-decoration: [(s1,s2,s3,s4)]
!!!ONB: Converted from MusicXML on 2020/01/17
